resources/assets/icons/collectibles.svg

<svg xmlns="http://www.w3.org/2000/svg" viewBox="0 0 22.404 24.184">
  <g id="Collectibles" transform="translate(-392.923 -1108.166)">
    <g id="Многоугольник_1790" data-name="Многоугольник 1790" transform="translate(-530.093 380.16)" fill="none" stroke-linejoin="round">
      <path d="M934.218,750.19l-9.2-5.046V735.052l9.2-5.046,9.2,5.046v10.092Z" stroke="none"/>
      <path d="M 934.2184448242188 750.1904296875 L 943.4204711914062 745.1444091796875 L 943.4204711914062 735.0523071289062 L 934.2184448242188 730.0064086914062 L 925.0162353515625 735.0523071289062 L 925.0162353515625 745.1444091796875 L 934.2184448242188 750.1904296875 M 934.2184448242188 752.1904296875 C 933.8873901367188 752.1904296875 933.5562744140625 752.1083374023438 933.2567749023438 751.944091796875 L 924.0545654296875 746.8980102539062 C 923.414306640625 746.5469360351562 923.0162353515625 745.8746948242188 923.0162353515625 745.1444091796875 L 923.0162353515625 735.0523071289062 C 923.0162353515625 734.3219604492188 923.414306640625 733.6497802734375 924.0546264648438 733.298583984375 L 933.2568359375 728.252685546875 C 933.5563354492188 728.0885009765625 933.8873901367188 728.0064086914062 934.2184448242188 728.0064086914062 C 934.5494995117188 728.0064086914062 934.8805541992188 728.0885009765625 935.1800537109375 728.2527465820312 L 944.3821411132812 733.2986450195312 C 945.0224609375 733.6497802734375 945.4204711914062 734.3219604492188 945.4204711914062 735.0523071289062 L 945.4204711914062 745.1444091796875 C 945.4204711914062 745.8746337890625 945.0224609375 746.5469360351562 944.3821411132812 746.8980102539062 L 935.1800537109375 751.944091796875 C 934.8805541992188 752.1083374023438 934.5494995117188 752.1904296875 934.2184448242188 752.1904296875 Z" stroke="none" fill="currentColor"/>
    </g>
    <path id="Многоугольник_1790_копия" data-name="Многоугольник 1790 копия" d="M932.318,742.237l-7.3-4.231" transform="translate(-530.491 377.189)" fill="none" stroke="currentColor" stroke-width="2"/>
    <g id="Эллипс_76" data-name="Эллипс 76" transform="translate(401 1117)" fill="#fff" stroke="currentColor" stroke-width="2">
      <circle cx="3" cy="3" r="3" stroke="none"/>
      <circle cx="3" cy="3" r="2" fill="none"/>
    </g>
    <path id="Многоугольник_1790_копия-2" data-name="Многоугольник 1790 копия" d="M925.016,742.237l7.3-4.23" transform="translate(-518.491 377.189)" fill="none" stroke="currentColor" stroke-width="2"/>
  </g>
</svg>

<svg xmlns="http://www.w3.org/2000/svg" viewBox="0 0 22.404 24.184"><g id="Collectibles" transform="translate(-392.923 -1108.166)"><g id="Многоугольник_1790" data-name="Многоугольник 1790" fill="none" stroke-linejoin="round"><path d="M934.218 750.19l-9.2-5.046v-10.092l9.2-5.046 9.2 5.046v10.092z" transform="translate(-530.093 380.16)"/><path d="M934.218 750.19l9.202-5.046v-10.092l-9.202-5.046-9.202 5.046v10.092l9.202 5.046m0 2c-.33 0-.662-.082-.961-.246l-9.202-5.046a2 2 0 01-1.039-1.754v-10.092a2 2 0 011.039-1.753l9.202-5.046a2 2 0 011.923 0l9.202 5.046a2 2 0 011.038 1.753v10.092a2 2 0 01-1.038 1.754l-9.202 5.046c-.3.164-.63.246-.962.246z" fill="currentColor" transform="translate(-530.093 380.16)"/></g><path id="Многоугольник_1790_копия" data-name="Многоугольник 1790 копия" d="M401.827 1119.426l-7.3-4.231" fill="none" stroke="currentColor" stroke-width="2"/><g id="Эллипс_76" data-name="Эллипс 76" transform="translate(401 1117)" fill="#fff" stroke="currentColor" stroke-width="2"><circle cx="3" cy="3" r="3" stroke="none"/><circle cx="3" cy="3" r="2" fill="none"/></g><path id="Многоугольник_1790_копия-2" data-name="Многоугольник 1790 копия" d="M406.525 1119.426l7.3-4.23" fill="none" stroke="currentColor" stroke-width="2"/></g></svg>
